!!!COM: Bononcini, Giovanni
!!!CDT: 1672///-1750///
!!!OTL@@IT: Per la gloria d'adorarvi
!!!OTL@EN: For the love my heart doth prize
!!!OPR: Griselda (opera)
!!!ONM: No. 1
**kern	**kern	**dynam	**kern	**dynam
*staff3	*staff2	*staff2/3	*staff1	*staff1
*clefF4	*clefG2	*clefG2	*clefG2	*clefG2
*Ipiano	*Ipiano	*Ipiano	*Ivox	*Ivox
*k[f#c#]	*k[f#c#]	*k[f#c#]	*k[f#c#]	*k[f#c#]
*D:	*D:	*D:	*D:	*D:
*M3/4	*M3/4	*M3/4	*M3/4	*M3/4
*MM80	*MM80	*MM80	*MM80	*MM80
*^	*^	*	*	*
4DD/	2.DD\	4.ff#^/ (4.aa^/	2.a\	f	2.r	.
4D/	.	.	.	.	.	.
.	.	8ee/ 8gg/	.	.	.	.
[4D/	.	4dd/ 4ff#/)	.	.	.	.
*v	*v	*	*	*	*	*
=2	=2	=2	=2	=2	=2
4DD/ 4D/]	8ee/ (8gg/L	4b\	.	2.r	.
.	8ee/J)	.	.	.	.
4CC#/ 4C#/	4ee^/ 4aa^/	2a\	.	.	.
4AAA/ 4AA/	4cc#^/ 4gg^/	.	.	.	.
=3	=3	=3	=3	=3	=3
4DD/ 4D/	(8ff#/L	4a\ 4dd\	.	2.r	.
.	8dd/J	.	.	.	.
(4GG/ 4G/	4bb^/)	4b\ 4dd\	.	.	.
4GG#/) 4G#/	4dd^/	4e\ 4b\	.	.	.
=4	=4	=4	=4	=4	=4
4.AA\ (4.A\	4dd/	2e\ 2a\	.	2.r	.
.	(4cc#/	.	.	.	.
8GGn/ 8Gn/	.	.	.	.	.
*	*v	*v	*	*	*
.	bq/LL	.	.	.
.	cc#q/JJ	.	.	.
*	*^	*	*	*
4FF#/ 4F#/)	4dd/)	4d\ 4a\	.	.	.
=5	=5	=5	=5	=5	=5
4CC#/ 4C#/	4ee/	4g\ 4a\	.	2.r	.
4DD/ 4D/	2ff#^/	2f#\ 2a\ 2dd\	.	.	.
4DD/ 4D/	.	.	.	.	.
=6	=6	=6	=6	=6	=6
4EE/ 4E/	(8gg/L	4a\ 4cc#\	.	2.r	.
.	8ff#/	.	.	.	.
4CC#/ 4C#/	8gg/	4a\ 4ee\	.	.	.
.	8ee/	.	.	.	.
4DD/ 4D/	8ff#/	4a\ 4dd\	.	.	.
.	8dd/J)	.	.	.	.
=7	=7	=7	=7	=7	=7
4GG/ 4G/	4bb/	4b\ 4dd\	.	2.r	.
4A\	2ee/	4a\ 4dd\	.	.	.
4AA/	.	4g\ 4cc#\	.	.	.
*	*v	*v	*	*	*
=8	=8	=8	=8	=8
(8D/L	2.f#/ 2.a/ 2.dd/	.	2.r	.
8C#/	.	.	.	.
8D/	.	.	.	.
8AA/	.	.	.	.
8FF#/	.	.	.	.
8AA/J)	.	.	.	.
=9	=9	=9	=9	=9
*	*^	*	*	*
4DD/	4.f#^/ (4.a^/	2.A\	mf	(4.a^/	mf
4r	.	.	.	.	.
.	8e/ 8g/	.	.	8g/)	.
*^	*	*	*	*	*
[4D'\	4A/	4d/ 4f#/)	.	.	4f#/	.
*	*	*v	*v	*	*	*
=10	=10	=10	=10	=10	=10
(2E/	4D\]	4B/ 4e/ (4g/	.	(8g/L	.
.	.	.	.	8e/J	.
.	4C#\	4A/ 4e/ 4a/	.	4a/)	.
*v	*v	*	*	*	*
4AA\)	4c#/ 4e/ 4g/)	.	4g/	.
*^	*	*	*	*
=11	=11	=11	=11	=11	=11
4A/	(4D\	4d/ (4f#/	.	(8f#/L	.
.	.	.	.	8d/J	.
*v	*v	*	*	*	*
4G\	4d/ 4e/ 4b/	.	4b\)	.
4G#\)	4d/ 4e/)	.	4d/	.
=12	=12	=12	=12	=12
4.A\	(4d/ 4e/	.	(4d/	.
.	4c#/) 4e/	.	4c#/)	.
8Gn\	.	.	.	.
&(4F#\&)	4A/ 4d/ (4a/	.	4d/	.
=13	=13	=13	=13	=13
4C#/	4A/ 4e/ 4a/	.	4e/	.
4D\	4A/ 4f#/ 4a/	.	2f#/	.
4DD/	4A/ 4f#/ 4a/	.	.	.
=14	=14	=14	=14	=14
4E\	4A/ 4c#/ 4g/	.	(8g/L	.
.	.	.	8f#/J)	.
4C#/	4A/ 4e/ 4g/	.	(8g/L	.
.	.	.	8e/J)	.
4D\	4A/ 4d/ 4f#/	.	(8f#/L	.
.	.	.	8d/J)	.
=15	=15	=15	=15	=15
&(4GG/&)	4B/ 4d/ 4b/)	.	4b\	.
[4AA/	4A/ 4d/ 4e/	.	(2e/	.
4AAA/ 4AA/]	4G/ 4c#/ 4e/	.	.	.
=16	=16	=16	=16	=16
(8DD/ 8AA/L	2F#/ 2A/ 2d/	.	2d/)	.
8C#/	.	.	.	.
8D/	.	.	.	.
8AA/	.	.	.	.
8FF#/	4r	.	4r	.
8AA/J)	.	.	.	.
=17	=17	=17	=17	=17
4DD/	(4.A/ 4.f#/	pp	(4.a/	pp
4r	.	.	.	.
.	8G/ 8e/	.	8g/)	.
[4D\	4F#/) 4d/	.	4f#/	.
=18	=18	=18	=18	=18
*^	*^	*	*	*
2.E/	(4D\]	(4B/	2.G\	.	(8g/L	.
.	.	.	.	.	8e/J	.
.	4C#\	4A/	.	.	4a/)	.
.	4AA\)	4c#/)	.	.	4g/	.
*v	*v	*	*	*	*	*
=19	=19	=19	=19	=19	=19
(4D\	(2d/	4F#\ 4A\	.	(8f#/L	.
.	.	.	.	8d/J	.
4G\	.	4B\	.	4b\)	.
4G#\)	4d/ 4e/)	&(4B\&)	.	4d/	.
*	*v	*v	*	*	*
=20	=20	=20	=20	=20
(4.A\	4d/ (4e/	.	(4d/	.
.	4c#/ 4e/	.	4c#/)	.
8Gn\	.	.	.	.
4F#\)	4A/ 4d/)	.	4d/	.
=21	=21	=21	=21	=21
4C#/	(8e/L	pp	4e/	.
.	8A/	.	.	.
4D\	8f#/	.	2f#/	.
.	8A/	.	.	.
4DD/	8a/	.	.	.
.	8A/J	.	.	.
=22	=22	=22	=22	=22
4E\	8c#/ 8g/L	.	(8g/L	.
.	8A/	.	8f#/J)	.
4C#/	8e/ 8g/	.	(8g/L	.
.	8A/	.	8e/J)	.
4D\	8d/ 8f#/	.	(8f#/L	.
.	8A/J)	.	8d/J)	.
=23	=23	=23	=23	=23
4GG/	4B/ 4d/ 4b/	.	4b\	.
*	*^	*	*	*
[4AA/	2e/	4A\ 4d\	.	(2e/	.
4AAA/ 4AA/]	.	4G\ 4c#\	.	.	.
*	*v	*v	*	*	*
=24	=24	=24	=24	=24
(8DD/ 8AA/L	2F#/ 2A/ 2d/	.	2d/)	.
8C#/	.	.	.	.
8D/	.	.	.	.
8AA/	.	.	.	.
8D/	4r	.	4r	.
8AA/J)	.	.	.	.
=25	=25	=25	=25	=25
4FF#/	4A/ 4d/ 4a/	mf	(8a/L	mf
.	.	.	8g/J)	.
4r	4r	.	8f#/	.
.	.	.	8e/	mp
4F#\	4A/ 4d/ 4a/	.	8d/	.
.	.	.	8cn/	.
=26	=26	=26	=26	=26
*	*^	*	*	*
(8G\L	(2d/	4cn\	.	(4cn/	.
8F#\	.	.	.	.	.
8G\	.	&(4B\&)	.	2B/)	.
8BB\	.	.	.	.	.
8D\	4d/ 4b/)	4B\	.	.	.
8BB\J)	.	.	.	.	.
*	*v	*v	*	*	*
=27	=27	=27	=27	=27
4GG/	4B/ 4d/ 4b/	f	(8b/L	f
.	.	.	8a/J)	.
4r	4r	.	8g/	.
.	.	.	8f#/	.
4G#\	4B/ 4e/ 4b/	.	8e/	.
.	.	.	8d/	.
=28	=28	=28	=28	=28
*	*^	*	*	*
(8A\L	(2e/	4d\	.	(4d/	.
8G#\	.	.	.	.	.
8A\	.	4c#\)	.	2c#/)	.
8E\	.	.	.	.	.
8A\	4e/	4c#\	.	.	.
8Gn\J)	.	.	.	.	.
=29	=29	=29	=29	=29	=29
(8F#\L	(8a/L	4d\	.	4d/	.
8E\	8g/	.	.	.	.
8F#\	8a/	4d\	.	4r	.
8D\	8f#/	.	.	.	.
8G\	8b/	4d\	.	4r	.
8F#\J)	8a/J)	.	.	.	.
=30	=30	=30	=30	=30	=30
(8E/L	(8g/L	4d\	.	[4g/	.
8D/	8f#/	.	.	.	.
8E/	8g/	8B\L	.	8g/]	.
8C#/	8e/J)	8A\J	.	16r	.
.	.	.	.	16e/	.
8D/	[4f#/	[4d\	.	[4f#/	.
8AA/J)	.	.	.	.	.
=31	=31	=31	=31	=31	=31
(8BB/L	8f#/L]	8d\L]	.	8.f#/]	.
8GG/J)	8g/J	8B\ 8d\J	.	.	.
.	.	.	.	16g/	.
[4AA/	2e/	4A\ 4d\	.	2e/	.
4AAA/ 4AA/]	.	4G\ 4c#\	.	.	.
*	*v	*v	*	*	*
=32	=32	=32	=32	=32
(8DD/ 8AA/L	2F#/ 2A/ 2d/	.	2d/	.
8C#/	.	.	.	.
8D/	.	.	.	.
8AA/	.	.	.	.
8D/	4r	.	4r	.
8AA/J)	.	.	.	.
=33	=33	=33	=33	=33
4FF#/	4A/ 4d/ 4a/	mf	(8a/L	mf
.	.	.	8g/J)	.
4r	4r	.	8f#/	.
.	.	.	8e/	.
4F#\	4A/ 4d/ 4a/	.	8d/	.
.	.	.	8cn/	.
=34	=34	=34	=34	=34
*	*^	*	*	*
(8G\L	(2d/	4cn\	.	(4cn/	.
8F#\	.	.	.	.	.
8G\	.	&(4B\&)	.	2B/)	.
8BB\	.	.	.	.	.
8D\	4b/)	4B\ 4d\	.	.	.
8BB\J)	.	.	.	.	.
*	*v	*v	*	*	*
=35	=35	=35	=35	=35
4GG/	4B/ 4d/ 4b/	f	(8b/L	f
.	.	.	8a/J)	.
4r	4r	.	8g/	.
.	.	.	8f#/	.
4G#\	4B/ 4e/ 4b/	.	8e/	.
.	.	.	8d/	.
=36	=36	=36	=36	=36
*	*^	*	*	*
(8A\L	2e/	(4d\	.	(4d/	.
8G#\	.	.	.	.	.
8A\	.	4c#\)	.	2c#/)	.
8E\	.	.	.	.	.
8A\	4e/	4c#\	.	.	.
8Gn\J)	.	.	.	.	.
=37	=37	=37	=37	=37	=37
(8F#\L	(8a/L	4d\	.	4d/	.
8E\	8g/	.	.	.	.
8F#\	8a/	4d\	.	4r	.
8D\	8f#/	.	.	.	.
8G\	8b/	4d\	.	4r	.
8F#\J)	8a/J)	.	.	.	.
=38	=38	=38	=38	=38	=38
(8E/L	(8g/L	4d\	.	[4g/	.
8D/	8f#/	.	.	.	.
8E/	8g/	8c#\L	.	8g/]	.
8C#/	8e/J)	8A\J	.	16r	.
.	.	.	.	16e/	.
8D/	[4f#/	[4d\	.	[4f#/	.
8AA/J)	.	.	.	.	.
=39	=39	=39	=39	=39	=39
(8BB/L	8f#/L]	8d\L]	.	8.f#/]	.
8GG/J)	8g/J	8B\ 8d\J	.	.	.
.	.	.	.	16g/	.
[4AA/	2e/	4A\ 4d\	.	2e/	.
4AAA/ 4AA/]	.	4G\ 4c#\	.	.	.
*	*v	*v	*	*	*
=40	=40	=40	=40	=40
(8DD/ 8AA/L	8F#/ 8A/ (8d/L	.	2d/	.
8C#/	8c#/	.	.	.
8D/	8d/	.	.	.
8AA/	8A/	.	.	.
8D/	8d/	.	4r	.
8AA/J)	8A/J)	.	.	.
=41	=41	=41	=41	=41
4FF#/	4d/ 4a/	f	4.a/	f
4r	4r	.	.	.
.	.	.	16g/LL	.
.	.	.	16a/JJ	.
4GG/	4B/ 4d/ 4b/	.	4b\	.
=42	=42	=42	=42	=42
4AA/	4e/ 4g/ 4cc#/	.	4.cc#\	.
4r	4r	.	.	.
.	.	.	(16b\LL	.
.	.	.	16cc#\JJ)	.
4BB/	4d/ 4f#/ 4dd/	.	4dd\	.
=43	=43	=43	=43	=43
*	*^	*	*	*
(8FF#/L	8d/L	(8A\L	.	8d/	.
8GG/J)	&(8e/J&)	8B\J)	.	8e/	.
.	.	.	.	(f#q/	.
[4AA/	2e/	4A\ 4d\	.	2e/)	.
4AAA/ 4AA/]	.	4G\ 4c#\	.	.	.
*	*v	*v	*	*	*
=44	=44	=44	=44	=44
(8DD/ 8AA/L	8F#/ 8A/ (8d/L	.	2d/	.
8C#/	8c#/	.	.	.
8D/	8d/	.	.	.
8AA/	8A/	.	.	.
8D/	8d/	.	4r	.
8AA/J)	8A/J)	.	.	.
=45	=45	=45	=45	=45
4FF#/	4d/ 4a/	p	4.a/	p
4r	4r	.	.	.
.	.	.	(16g/LL	.
.	.	.	16a/JJ)	.
4GG/	4B/ 4d/ 4b/	.	4b\	.
=46	=46	=46	=46	=46
4AA/	4e/ 4g/ 4cc#/	.	4.cc#\	.
4r	4r	.	.	.
.	.	.	(16b\LL	.
.	.	.	16cc#\JJ)	.
4BB;/	4d;/ 4f#;/ 4dd;/	.	4dd;\	.
=47	=47	=47	=47	=47
*	*^	*	*	*
(8FF#/L	(8d/L	8A\L	.	8d/	.
8GG/J)	8e/J)	&(8B\J&)	.	8e/	.
.	.	.	.	(f#q/	.
[4AA/	2e/	4A\ 4d\	.	2e/)	.
4AAA/ 4AA/]	.	4G\ 4c#\	.	.	.
*	*v	*v	*	*	*
=48	=48	=48	=48	=48
(8DD/ 8AA/L	2F#/ 2A/ 2d/	.	2d/	.
8C#/	.	.	.	.
8D/	.	.	.	.
8AA/	.	.	.	.
8FF#/	4r	.	4r	.
8AA/J)	.	.	.	.
=49	=49	=49	=49	=49
*^	*^	*	*	*
4DD/	2.DD\	4.ff#^/ (4.aa^/	2.a\	ff	2.r	.
4D/	.	.	.	.	.	.
.	.	8ee/ 8gg/	.	.	.	.
[4D/	.	4dd/ 4ff#/)	.	.	.	.
*v	*v	*	*	*	*	*
=50	=50	=50	=50	=50	=50
(4DD/ 4D/]	8ee/ (8gg/L	4b\	.	2.r	.
.	8ee/J	.	.	.	.
4CC#/ 4C#/	4ee^/ 4aa^/)	2a\	.	.	.
4AAA/ 4AA/	4cc#^/ 4gg^/	.	.	.	.
=51	=51	=51	=51	=51	=51
4DD/) 4D/	8ff#/L	4a\ 4dd\	.	2.r	.
.	8dd/J	.	.	.	.
(4GG/ 4G/	&(4bb^/&)	4b\ 4dd\	.	.	.
4GG#/) 4G#/	4dd^/	4e\ 4b\	.	.	.
=52	=52	=52	=52	=52	=52
4.AA\ (4.A\	4dd/	2e\ 2a\	.	2.r	.
.	(4cc#/	.	.	.	.
8GGn/ 8Gn/	.	.	.	.	.
*	*v	*v	*	*	*
.	bq/LL	.	.	.
.	cc#q/JJ	.	.	.
*	*^	*	*	*
4FF#/ 4F#/)	4dd/)	4d\ 4a\	.	.	.
=53	=53	=53	=53	=53	=53
4CC#/ 4C#/	4ee/	4g\ 4a\	.	2.r	.
4DD/ 4D/	2ff#^/	2f#\ 2a\ 2dd\	.	.	.
4DD/ 4D/	.	.	.	.	.
=54	=54	=54	=54	=54	=54
4EE/ 4E/	(8gg/L	4a\ 4cc#\	.	2.r	.
.	8ff#/	.	.	.	.
4CC#/ 4C#/	8gg/	4a\ 4ee\	.	.	.
.	8ee/	.	.	.	.
4DD/ 4D/	8ff#/	4a\ 4dd\	.	.	.
.	8dd/J)	.	.	.	.
=55	=55	=55	=55	=55	=55
4GG/ 4G/	4bb/	4b\ 4dd\	.	2.r	.
4A\	2ee/	4a\ 4dd\	.	.	.
4AA/	.	4g\ 4cc#\	.	.	.
*	*v	*v	*	*	*
=56	=56	=56	=56	=56
(8D/L	2.f#/ 2.a/ 2.dd/	.	2.r	.
8C#/	.	.	.	.
8D/	.	.	.	.
8AA/	.	.	.	.
8FF#/	.	.	.	.
8AA/J)	.	.	.	.
=57	=57	=57	=57	=57
*	*^	*	*	*
4DD/	4.f#^/ (4.a^/	2.A\	f	(4.a/	f
4r	.	.	.	.	.
.	8e/ 8g/	.	.	8g/)	.
[4D\	4d/ 4f#/)	.	.	4f#/	.
*	*v	*v	*	*	*
=58	=58	=58	=58	=58
*^	*	*	*	*
(2E/	4D\]	(4B/ 4e/ 4g/	.	(8g/L	.
.	.	.	.	8e/J	.
.	4C#\	4A/ 4e/ 4a/	.	4a/)	.
4A/	4AA\)	4c#/) 4e/ 4g/	.	4g/	.
=59	=59	=59	=59	=59	=59
4A/	(4D\	4d/ (4f#/	.	(8f#/L	.
.	.	.	.	8d/J	.
*v	*v	*	*	*	*
4G\	4d/ 4e/ 4b/	.	4b\)	.
4G#\)	4d/ 4e/)	.	4d/	.
=60	=60	=60	=60	=60
(4.A\	4d/ (4e/	.	(4d/	.
.	4c#/ 4e/	.	4c#/)	.
8Gn\	.	.	.	.
4F#\)	4A/ 4d/ 4a/)	.	4d/	.
=61	=61	=61	=61	=61
4C#/	4A/ 4e/ (4a/	.	(4e/	.
4D\	4A/ 4f#/ 4a/	.	4.f#/)	.
4DD/	4A/ 4f#/ 4a/)	.	.	.
.	.	.	8f#/	.
=62	=62	=62	=62	=62
4E\	4A/ 4c#/ (4g/	.	(8g/L	.
.	.	.	8f#/J)	.
4C#/	4A/ 4e/ 4g/	.	(8g/L	.
.	.	.	8e/J)	.
4D\	4A/ 4d/ 4f#/)	.	(8f#/L	.
.	.	.	8d/J)	.
=63	=63	=63	=63	=63
4GG/	4B/ 4d/ (4b/	.	4b\	.
[4AA/	4A/ 4d/ 4e/	.	(2e/	.
4AAA/ 4AA/]	4G/ 4c#/ 4e/)	.	.	.
=64	=64	=64	=64	=64
(8DD/ 8AA/L	2F#/ 2A/ 2d/	.	2d/)	.
8C#/	.	.	.	.
8D/	.	.	.	.
8AA/	.	.	.	.
8FF#/	4r	.	4r	.
8AA/J)	.	.	.	.
=65	=65	=65	=65	=65
4DD/	4.A/ (4.f#/	pp	(4.a/	pp
4r	.	.	.	.
.	8G/ 8e/	.	8g/)	.
[4D\	4F#/ 4d/)	.	4f#/	.
=66	=66	=66	=66	=66
*^	*^	*	*	*
2.E/	(4D\]	(4B/	2.G\	.	(8g/L	.
.	.	.	.	.	8e/J	.
.	4C#\	4A/	.	.	4a/)	.
.	4AA\)	4c#/)	.	.	4g/	.
*v	*v	*	*	*	*	*
=67	=67	=67	=67	=67	=67
(4D\	(2d/	4F#\ 4A\	.	(8f#/L	.
.	.	.	.	8d/J	.
4G\	.	4B\	.	4b\)	.
4G#\)	4e/)	4B\ 4d\	.	4d/	.
*	*v	*v	*	*	*
=68	=68	=68	=68	=68
(4.A\	4d/ (4e/	.	(4d/	.
.	4c#/ 4e/	.	4c#/)	.
8Gn\	.	.	.	.
4F#\)	4A/ 4d/)	.	4d/	.
=69	=69	=69	=69	=69
4C#/	(8e/L	pp	(4e/	.
.	8A/	.	.	.
4D\	8f#/	.	4.f#/)	.
.	8A/	.	.	.
4DD/	8a/	.	.	.
.	8A/J)	.	8f#/	.
=70	=70	=70	=70	=70
4E\	(8c#/ 8g/L	p	(8g/L	.
.	8A/	.	8f#/J)	.
4C#/	8e/ 8g/	.	(8g/L	.
.	8A/	.	8e/J)	.
4D\	8d/ 8f#/	.	(8f#/L	.
.	8A/J)	.	8d/J)	.
=71	=71	=71	=71	=71
4GG/	4B/ 4d/ (4b/	.	4b\	.
*	*^	*	*	*
[4AA/	2e/	4A\ 4d\	.	2e/	.
4AAA/ 4AA/]	.	4G\ 4c#\	.	.	.
*	*v	*v	*	*	*
=72	=72	=72	=72	=72
(8DD/ 8AA/L	2F#/ 2A/ 2d/)	.	2d/	.
8C#/	.	.	.	.
8D/	.	.	.	.
8AA/	.	.	.	.
8D/	4r	.	4r	.
8AA/J)	.	.	.	.
=73	=73	=73	=73	=73
4FF#/	4A/ 4d/ 4a/	mf	8a/	mf
.	.	.	8g/	.
4r	4r	.	8f#/	.
.	.	.	8e/	.
4F#\	4A/ 4d/ 4a/	.	8d/	.
.	.	.	8cn/	.
=74	=74	=74	=74	=74
*	*^	*	*	*
(8G\L	(2d/	4cn\	.	(4cn/	.
8F#\	.	.	.	.	.
8G\	.	4B\)	.	2B/)	.
8BB\	.	.	.	.	.
8D\	4b/	4B\ 4d\	.	.	.
8BB\J)	.	.	.	.	.
*	*v	*v	*	*	*
=75	=75	=75	=75	=75
4GG/	4B/ 4d/ 4b/	f	(8b/L	f
.	.	.	8a/J)	.
4r	4r	.	8g/	.
.	.	.	8f#/	.
4G#\	4B/ 4e/ 4b/	.	8e/	.
.	.	.	8d/	.
=76	=76	=76	=76	=76
*	*^	*	*	*
(8A\L	2e/	(4d\	.	(4d/	.
8G#\	.	.	.	.	.
8A\	.	4c#\)	.	2c#/)	.
8E\	.	.	.	.	.
8A\	4e/	4c#\	.	.	.
8Gn\J)	.	.	.	.	.
=77	=77	=77	=77	=77	=77
(8F#\L	8a/L	4d\	.	4d/	.
8E\	8g/	.	.	.	.
8F#\	8a/	4d\	.	4r	.
8D\	8f#/	.	.	.	.
8G\	8b/	4d\	.	4r	.
8F#\J)	8a/J	.	.	.	.
=78	=78	=78	=78	=78	=78
(8E/L	(8g/L	4d\	.	[4g/	.
8D/	8f#/	.	.	.	.
8E/	8g/	8c#\L	.	8g/]	.
8C#/	8e/J)	8A\J	.	16r	.
.	.	.	.	16e/	.
8D/	[4f#/	[4d\	.	[4f#/	.
8AA/J)	.	.	.	.	.
=79	=79	=79	=79	=79	=79
(8BB/L	8f#/L]	8d\L]	.	8.f#/]	.
8GG/J)	8g/J	8B\ 8d\J	.	.	.
.	.	.	.	16g/	.
[4AA/	2e/	4A\ 4d\	.	2e/	.
4AAA/ 4AA/]	.	4G\ 4c#\	.	.	.
*	*v	*v	*	*	*
=80	=80	=80	=80	=80
(8DD/ 8AA/L	2F#/ 2A/ 2d/	.	2d/	.
8C#/	.	.	.	.
8D/	.	.	.	.
8AA/	.	.	.	.
8D/	4r	.	4r	.
8AA/J)	.	.	.	.
=81	=81	=81	=81	=81
4FF#/	4A/ 4d/ 4a/	mf	8a/	mf
.	.	.	8g/	.
4r	4r	.	8f#/	.
.	.	.	8e/	.
4F#\	4A/ 4d/ 4a/	.	8d/	.
.	.	.	8cn/	.
=82	=82	=82	=82	=82
*	*^	*	*	*
(8G\L	(2d/	4cn\	.	(4cn/	.
8F#\	.	.	.	.	.
8G\	.	4B\)	.	2B/)	.
8BB\	.	.	.	.	.
8D\	4d/ 4b/	4B\	.	.	.
8BB\J)	.	.	.	.	.
*	*v	*v	*	*	*
=83	=83	=83	=83	=83
4GG/	4B/ 4d/ 4b/	f	(8b/L	f
.	.	.	8a/J)	.
4r	4r	.	8g/	.
.	.	.	8f#/	.
4G#\	4B/ 4e/ 4b/	.	8e/	.
.	.	.	8d/	.
=84	=84	=84	=84	=84
*	*^	*	*	*
(8A\L	2e/	(4d\	.	(4d/	.
8G#\	.	.	.	.	.
8A\	.	4c#\)	.	2c#/)	.
8E\	.	.	.	.	.
8A\	4e/	4c#\	.	.	.
8Gn\J)	.	.	.	.	.
=85	=85	=85	=85	=85	=85
(8F#\L	(8a/L	4d\	.	4d/	.
8E\	8g/	.	.	.	.
8F#\	8a/	4d\	.	4r	.
8D\	8f#/	.	.	.	.
8G\	8b/	4d\	.	4r	.
8F#\J)	8a/J)	.	.	.	.
=86	=86	=86	=86	=86	=86
(8E/L	(8g/L	4d\	.	[4g/	.
8D/	8f#/	.	.	.	.
8E/	8g/	8c#\L	.	8g/]	.
8C#/	8e/J)	8A\J	.	16r	.
.	.	.	.	16e/	.
8D/	[4f#/	[4d\	.	[4f#/	.
8AA/J)	.	.	.	.	.
=87	=87	=87	=87	=87	=87
8BB/L	8f#/L]	8d\L]	.	8.f#/]	.
8GG/J	8g/J	8B\ 8d\J	.	.	.
.	.	.	.	16g/	.
[4AA/	2e/	4A\ 4d\	.	2e/	.
4AAA/ 4AA/]	.	4G\ 4c#\	.	.	.
*	*v	*v	*	*	*
=88	=88	=88	=88	=88
(8DD/ 8AA/L	8F#/ 8A/ (8d/L	.	2d/	.
8C#/	8c#/	.	.	.
8D/	8d/	.	.	.
8AA/	8A/	.	.	.
8D/	8d/	.	4r	.
8AA/J)	8A/J)	.	.	.
=89	=89	=89	=89	=89
4FF#/	4d/ 4a/	f	4.a/	f
4r	4r	.	.	.
.	.	.	(16g/LL	.
.	.	.	16a/JJ)	.
4GG/	4B/ 4d/ 4b/	.	4b\	.
=90	=90	=90	=90	=90
4AA/	4e/ 4g/ 4cc#/	.	4.cc#\	.
4r	4r	.	.	.
.	.	.	(16b\LL	.
.	.	.	16cc#\JJ)	.
4BB/	4d/ 4f#/ 4dd/	.	4dd\	.
=91	=91	=91	=91	=91
*	*^	*	*	*
(8FF#/L	(8A/ 8d/L	4r	.	8d/	.
8GG/J)	8B/) 8e/J	.	.	8e/	.
.	.	.	.	(f#q/	.
[4AA/	2e/	4A\ 4d\	.	2e/)	.
4AAA/ 4AA/]	.	4G\ 4c#\	.	.	.
*	*v	*v	*	*	*
=92	=92	=92	=92	=92
(8DD/ 8AA/L	8F#/ 8A/ (8d/L	.	2d/	.
8C#/	8c#/	.	.	.
8D/	8d/	.	.	.
8AA/	8A/	.	.	.
8D/	8d/	.	4r	.
8AA/J)	8A/J)	.	.	.
=93	=93	=93	=93	=93
4FF#/	4d/ 4a/	p	4.a/	p
4r	4r	.	.	.
.	.	.	(16g/LL	.
.	.	.	16a/JJ)	.
4GG/	4B/ 4d/ 4b/	.	4b\	.
=94	=94	=94	=94	=94
4AA/	4e/ 4g/ 4cc#/	.	4.cc#\	.
4r	4r	.	.	.
.	.	.	(16b\LL	.
.	.	.	16cc#\JJ)	.
4BB;/	4d;/ 4f#;/ 4dd;/	.	4dd;\	.
=95	=95	=95	=95	=95
(8FF#/L	(8A/ 8d/L	.	8d/	.
8GG/J)	8B/) 8e/J	.	8e/	.
*	*^	*	*	*
.	.	.	.	f#q/	.
[4AA/	2e/	4A\ 4d\	.	2e/	.
4AAA/ 4AA/]	.	4G\ 4c#\	.	.	.
*	*v	*v	*	*	*
=96	=96	=96	=96	=96
(8DD/ 8AA/L	8F#/ 8A/ 8d/L	.	2d/	.
8C#/	(8c#/	.	.	.
8D/	8d/	.	.	.
8AA/	8A/	.	.	.
8FF#/	8F#/	.	4r	.
8AA/J)	8A/J)	.	.	.
=97	=97	=97	=97	=97
*^	*^	*	*	*
4DD/	2.DD\	4.ff#/ (4.aa/	2.a\	ff	2.r	.
4D/	.	.	.	.	.	.
.	.	8ee/ 8gg/	.	.	.	.
[4D/	.	4dd/ 4ff#/)	.	.	.	.
*v	*v	*	*	*	*	*
=98	=98	=98	=98	=98	=98
(4DD/ 4D/]	8ee/ (8gg/L	4b\	.	2.r	.
.	8ee/J	.	.	.	.
4CC#/ 4C#/	4ee^/ 4aa^/)	2a\	.	.	.
4AAA/ 4AA/	4cc#^/ 4gg^/	.	.	.	.
=99	=99	=99	=99	=99	=99
4DD/) 4D/	8ff#/L	4a\ 4dd\	.	2.r	.
.	8dd/J	.	.	.	.
(4GG/ 4G/	&(4bb^/&)	4b\ 4dd\	.	.	.
4GG#/) 4G#/	4dd^/	4e\ 4b\	.	.	.
=100	=100	=100	=100	=100	=100
4.AA\ (4.A\	4dd^/	2e\ 2a\	.	2.r	.
.	(4cc#/	.	.	.	.
8GGn/ 8Gn/	.	.	.	.	.
*	*v	*v	*	*	*
.	bq/LL	.	.	.
.	cc#q/JJ	.	.	.
*	*^	*	*	*
4FF#/ 4F#/)	4dd/)	4d\ 4a\	.	.	.
=101	=101	=101	=101	=101	=101
4CC#/ 4C#/	4ee/	4g\ 4a\	.	2.r	.
4DD/ 4D/	2ff#^/	2f#\ 2a\ 2dd\	.	.	.
4DD/ 4D/	.	.	.	.	.
=102	=102	=102	=102	=102	=102
4EE/ 4E/	(8gg/L	4a\ 4cc#\	.	2.r	.
.	8ff#/	.	.	.	.
4CC#/ 4C#/	8gg/	4a\ 4ee\	.	.	.
.	8ee/	.	.	.	.
4DD/ 4D/	8ff#/	4a\ 4dd\	.	.	.
.	8dd/J)	.	.	.	.
=103	=103	=103	=103	=103	=103
4GG/	4bb/	4b\ 4dd\	ff	2.r	.
[4AA/	(2ee^/	4a\ 4dd\	.	.	.
4AAA/ 4AA/]	.	4g\ 4cc#\	.	.	.
*	*v	*v	*	*	*
=104	=104	=104	=104	=104
2DD/ 2AA/	2f#/ 2a/ 2dd/)	.	2.r	.
4r	4r	.	.	.
==	==	==	==	==
*-	*-	*-	*-	*-
!!!ENC: Craig Stuart Sapp
!!!END: 2004/12/12/
